X: 1
T: la Royale   [D]
O: c.1755
R: reel
Z: 2014 John Chambers <jc:trillian.mit.edu>
B: Giovanni Andrea Gallini "A New Collection of Forty-Four Cotillions" #29
M: 2/4
L: 1/16
K: D
% - - - - - - - - - - - - - - - - - - - - - - - - - - - - -
"A"[|]\
"A7"F3G |\
"D"A2A2 "G"Bcd2 | "D"A4 "(A7)"d2cB |\
"D"Adcd "A7"efge | "D"f2d2 F3G |\
"D"A2A2 "G"Bcd2 | "D"A4 "E7"d2cB |
"A"(3ca^g "D"(3fed "E7"c2B2 | "A"A4 "B":|\
"D"Adfa |\
"A7"a2g2 Aceg | "D"g2f2 fafd |\
"A7"gbge "D"fafd | "A"c2A2 "D"Adfa |
"A7"a2g2 Aceg | "D"g2f2 "A7"gbge "I"|\
"D"fafd "A7"A2c2 | "D"d4 "C"|]\
"D"FAdA |\
"Em"GBeB "D"FAdF | "A"EAcE "D"FAdF |
"G"GBed "A7"cBAG | "D"F2D2 FAdF |\
"Em"GBeB "D"FAdF | "A"EAcE "D"FAdF |\
"G"GBeg "A7"fdec | "D"d4 |] [B4D4]
% - - - - - - - - - - - - - - - - - - - - - - - - - - - - -
